-----BEGIN PGP SIGNATURE-----

iQIzBAABCgAdFiEE9/7ha/423q41B57/D91J2wesJT4FAmrJKtkACgkQD91J2wes
JT5ubg/+I2WOzW6ZvcBrRE3FULDXfX3MywJNhpDThbHQUZ6NgDTutpqDrgW9EVrM
Y6iZkpaDydiECubjQIO0+H+3IJo2Vfmomv5iLiM4Dymr+DXuL4qaxpbACKiJ2Nup
weKEeM8ACGBRsUTgeILW971XbxZ1f02jBSFWuvfUyR8AkvWXpmltwKULhOPQi+eu
LCy4TN8jbcArfZZLW9MpsMXAYANaIbi2ieLz11xPKsZlQJmTtool1wY0mV8/Ax/u
MSS6DW5R5zFcxTYJhQyt1hcNYNgfV0sYl7+osIM2pheABuo+FMY5FFsUpA6inLcY
1OgadcdfQFdu9xYHHaIDjhq0Aqm/yZxr+VBuySE5QlY+URz/LcZxfezKNyGVT2HS
biNakqJBrfWA8FT+ty4pnGKlktJspUwjxK7GN07HFz/bcmrEcDMUmkDvypVFLvaA
0k6dWi2RYgkL9AEbbefHJbjXIzsX17ANhTffGbf5WbsoTrzsoqNm70mU63ty4Dbf
gI4u6mmEhiWNpYFQ3a9Pt0BWBWXFEQCr5S8M8R09YKe0WnrvLQnd1rHWC8OhcXBT
M9NjDSXYyKdGwfHUTIUhLsVi1V9i+RXXNyUvGDBMVYcHUjPWB8Iq28eedd8VkD9o
uTY0trP83026Bgv4Keq7Bfy+9K4laR1z5xY8lW+vNI7Hw30j4vg=
=QWrV
-----END PGP SIGNATURE-----
